X: 5
T: Old England For Ever
T: Saint Patrick's Day (in the Morning)
T: Barbary Bel(le)
T: Perry's Victory
M: 6/8
L: 1/8
R: jig
F: http://www.thesession.org/tunes/display/385
K: Gmaj
D \
|: GAG GAB | ded dBG | AGA BGD | EFE E2 D \
|  GAG GAB | ded dBG | AGA BGD |1 E2 FG2 D :|2 E2 FG2 B ||
|: def gag | fed edB | def gag | fed e2 d \
|  def gag | fed efg | dBG GAB | ded dBG |
|  AGA BGD | EFE E2 D | GAG GBd | gfe dBG \
|  AGA BGD |1 E2 FG2 B :|2 E2 FG2 D |]

%%sep 2 1 500

